X:1
T:Silent Night
T:Silent Night
T:Franz Xaver Gruber
T:Joseph Mohr
C:Franz Xaver Gruber
Z:Joseph Mohr
%%score { 1 | 2 }
L:1/8
Q:1/4=100
M:3/4
K:C
V:1 treble nm="Klavír" snm="Kl."
V:2 bass 
V:1
"C""^\n" G3 A G2 | E6 | G3 A G2 | E6 |"G7" d4 d2 | B6 |"C" c4 c2 | G6 |"F" A4 A2 | c3 B A2 | %10
"C" G3 A G2 | E6 |"F" A4 A2 | c3 B A2 |"C" G3 A G2 | E6 |"G7" d4 d2 | f3 d B2 |"C" c6 | e6 | %20
"C/G" c2 G2 E2 |"G7" G3 F D2 |"C" C6- | C6 |] %24
V:2
!ped! C,,2 [C,E,G,]2 [C,E,G,]2!ped-up! |!ped! C,,2 [C,E,G,]2 [C,E,G,]2!ped-up! | %2
!ped! C,,2 [C,E,G,]2 [C,E,G,]2!ped-up! |!ped! C,,2 [C,E,G,]2 [C,E,G,]2!ped-up! | %4
!ped! G,,,2 [D,F,G,B,]2 [D,F,G,B,]2!ped-up! |!ped! G,,,2 [D,F,G,B,]2 [D,F,G,B,]2!ped-up! | %6
!ped! C,,2 [C,E,G,]2 [C,E,G,]2!ped-up! |!ped! C,,2 [C,E,G,]2 [C,E,G,]2!ped-up! | [C,F,A,]6 | %9
!ped! F,,2 [C,F,A,]2 [C,F,A,]2!ped-up! |!ped! C,,2 [C,E,G,]2 [C,E,G,]2!ped-up! | %11
!ped! C,,2 [C,E,G,]2 [C,E,G,]2!ped-up! | [C,F,A,]6 |!ped! F,,2 [C,F,A,]2 [C,F,A,]2!ped-up! | %14
!ped! C,,2 [C,E,G,]2 [C,E,G,]2!ped-up! |!ped! C,,2 [C,E,G,]2 [C,E,G,]2!ped-up! | %16
!ped! G,,,2 [D,F,G,B,]2 [D,F,G,B,]2!ped-up! |!ped! G,,,2 [D,F,G,B,]2 [D,F,G,B,]2!ped-up! | %18
!ped! C,,2 [C,E,G,]2 [C,E,G,]2!ped-up! |!ped! C,,2 [C,E,G,]2 [C,E,G,]2!ped-up! | %20
!ped! [G,,C,E,]6!ped-up! |!ped! G,,2 [D,F,G,B,]2 [D,F,G,B,]2!ped-up! | [G,,C,E,]6- | [G,,C,E,]6 |] %24

